build/system/IPExternalSolid.svg

<svg xmlns="http://www.w3.org/2000/svg" fill="none" viewBox="0 0 24 24" focusable="false"><path d="M0 0H24V24H0z"/><path fill="#74767B" fill-rule="evenodd" d="M10.9038 20.3342C10.8433 20.387 10.7759 20.4224 10.7051 20.4487C10.6338 20.4753 10.5576 20.4885 10.4766 20.4885C10.396 20.4885 10.3198 20.4751 10.249 20.4485C10.1782 20.4221 10.1133 20.3865 10.0522 20.3335C9.77832 20.0955 9.4375 19.7703 9.03271 19.3662C8.22705 18.562 7.48828 17.7373 6.81543 16.8921C5.86719 15.6995 5.11963 14.5474 4.57324 13.4363C3.87207 12.0095 3.52148 10.6838 3.52148 9.45972C3.52148 8.94238 3.57617 8.43701 3.68604 7.94409C3.77637 7.53857 3.90381 7.14111 4.06836 6.75195C4.23438 6.35938 4.43311 5.98779 4.66357 5.63745C4.92139 5.24561 5.22021 4.87988 5.55859 4.54126C5.89648 4.20361 6.26025 3.90625 6.65088 3.64868C7.00098 3.41797 7.37646 3.21704 7.76953 3.05078C8.15674 2.88696 8.55811 2.75879 8.96191 2.66846C9.45459 2.55884 9.95996 2.50391 10.4775 2.50391C10.9946 2.50391 11.5 2.55884 11.9932 2.66846C12.3965 2.75879 12.7979 2.88696 13.1851 3.05078C13.5781 3.21704 13.9492 3.41528 14.2998 3.646C14.6919 3.90405 15.0571 4.20239 15.396 4.54126C15.7349 4.87988 16.0332 5.24536 16.291 5.63721C16.5215 5.98755 16.7202 6.35913 16.8862 6.75195C17.0508 7.14111 17.1782 7.53833 17.2686 7.94385C17.3784 8.43701 17.4331 8.94238 17.4331 9.45972C17.4331 9.94312 17.3789 10.4421 17.2705 10.9563C17.2261 11.1655 17.0186 11.2925 16.8066 11.2625C16.5391 11.2244 16.2651 11.2048 15.9868 11.2048C12.7861 11.2048 10.1914 13.7996 10.1914 17.0005C10.1914 18.0564 10.4727 19.0569 10.9658 19.9094C11.0479 20.0513 11.0278 20.2271 10.9038 20.3342ZM6.86914 7.40869L6.86914 12.7729C6.86914 13.137 7.15479 13.4231 7.51904 13.4231C7.88281 13.4231 8.16895 13.137 8.16895 12.7729L8.16895 7.40869C8.16895 7.04468 7.88281 6.75854 7.51904 6.75854C7.15479 6.75854 6.86914 7.04468 6.86914 7.40869ZM9.72266 7.40869L9.72266 12.7729C9.72266 13.137 10.0083 13.4231 10.3726 13.4231C10.7363 13.4231 11.0225 13.137 11.0225 12.7729L11.0225 11.3855L12.1016 11.3855Q12.355 11.3855 12.5967 11.3328C12.7349 11.3025 12.8701 11.2595 13.0024 11.2034Q13.2009 11.1195 13.3774 11.0027C13.5059 10.9175 13.626 10.8193 13.7373 10.7078C13.8486 10.5964 13.9473 10.4766 14.0322 10.3479C14.1099 10.23 14.1772 10.105 14.2329 9.97266C14.2891 9.84033 14.332 9.70508 14.3623 9.56689C14.3975 9.40576 14.415 9.24097 14.415 9.07202Q14.415 8.82957 14.3666 8.5972Q14.3645 8.58704 14.3623 8.5769C14.332 8.43896 14.2891 8.30371 14.2329 8.17139C14.1772 8.03906 14.1099 7.91406 14.0322 7.79614C13.9473 7.66748 13.8486 7.54761 13.7373 7.43628C13.626 7.32495 13.5063 7.22656 13.3774 7.1416C13.2598 7.06372 13.1348 6.99658 13.0024 6.94067C12.8701 6.88477 12.7349 6.84155 12.5967 6.81152C12.4355 6.77637 12.2705 6.75854 12.1016 6.75854L10.3726 6.75854C10.1929 6.75854 10.04 6.82202 9.91309 6.94897C9.78613 7.07593 9.72266 7.22925 9.72266 7.40869ZM11.0225 10.0854L12.1016 10.0854C12.1826 10.0854 12.2612 10.0764 12.3379 10.0581Q12.4185 10.0387 12.4961 10.0061C12.5503 9.98315 12.6021 9.95581 12.6509 9.92432C12.7109 9.8855 12.7666 9.84033 12.8184 9.78857C12.8696 9.73706 12.915 9.6814 12.9536 9.62134C12.9854 9.57251 13.0127 9.52075 13.0356 9.46631C13.0576 9.41479 13.0747 9.36206 13.0874 9.30835C13.106 9.23169 13.1152 9.15308 13.1152 9.07202Q13.1152 8.95291 13.0885 8.84013Q13.088 8.83779 13.0874 8.83545C13.0747 8.78198 13.0576 8.72925 13.0356 8.67773C13.0127 8.62329 12.9854 8.57153 12.9536 8.52271C12.915 8.46289 12.8696 8.40698 12.8184 8.35547C12.7666 8.30396 12.7109 8.25879 12.6509 8.21997C12.6021 8.18848 12.5503 8.16113 12.4961 8.13794C12.4443 8.11621 12.3916 8.09888 12.3384 8.08618C12.2617 8.06787 12.1826 8.05859 12.1016 8.05859L11.0225 8.05859L11.0225 10.0854ZM20.478 16.9978C20.478 19.4822 18.4639 21.4961 15.98 21.4961C13.4956 21.4961 11.4814 19.4822 11.4814 16.9978C11.4814 14.5137 13.4956 12.4998 15.98 12.4998C18.4639 12.4998 20.478 14.5137 20.478 16.9978ZM12.8574 16.9978C12.8574 17.3569 13.1484 17.6479 13.5073 17.6479L16.833 17.6479L15.6318 18.7737C15.3701 19.0193 15.3569 19.4307 15.6025 19.6924C15.8477 19.9543 16.2593 19.9678 16.521 19.7222L18.9214 17.4722C19.0522 17.3494 19.127 17.1775 19.127 16.9978C19.127 16.8184 19.0522 16.6465 18.9214 16.5237L16.521 14.2737C16.2593 14.0281 15.8477 14.0415 15.6025 14.3035C15.3569 14.5652 15.3701 14.9766 15.6318 15.2222L16.833 16.3479L13.5073 16.3479C13.1484 16.3479 12.8574 16.6389 12.8574 16.9978Z"/></svg>

<svg xmlns="http://www.w3.org/2000/svg" fill="none" viewBox="0 0 24 24" focusable="false"><path fill="#74767B" fill-rule="evenodd" d="M10.9 20.33c-.06.05-.13.09-.2.11-.07.03-.15.04-.23.04s-.16-.01-.23-.04a.5.5 0 0 1-.19-.11c-.28-.24-.62-.56-1.02-.97-.81-.8-1.55-1.63-2.22-2.47-.95-1.2-1.7-2.35-2.24-3.46-.7-1.43-1.05-2.75-1.05-3.98 0-.51.05-1.02.16-1.51.09-.41.22-.8.38-1.19.17-.4.37-.77.6-1.12.26-.39.56-.76.89-1.09.34-.34.71-.64 1.1-.9.35-.23.72-.43 1.11-.59q.585-.255 1.2-.39c.49-.11.99-.16 1.51-.16s1.03.05 1.52.16c.4.09.8.22 1.19.39a6.758 6.758 0 0 1 2.21 1.49c.34.33.64.7.9 1.09.23.35.43.72.59 1.12.17.39.29.78.38 1.19.11.49.17 1 .17 1.51 0 .49-.06.99-.16 1.5a.42.42 0 0 1-.47.31A5.79 5.79 0 0 0 10.19 17c0 1.05.28 2.05.77 2.9.08.15.06.32-.06.43M6.86 7.4v5.37c0 .36.29.65.65.65.37 0 .65-.29.65-.65V7.4c0-.36-.28-.65-.65-.65-.36 0-.65.29-.65.65m2.86 0v5.37c0 .36.28.65.65.65.36 0 .65-.29.65-.65v-1.39h1.08q.25 0 .49-.05c.14-.03.28-.08.41-.13q.2-.09.37-.2a2.6 2.6 0 0 0 .66-.66c.07-.12.14-.24.2-.37.05-.13.1-.27.13-.41.03-.16.05-.32.05-.49q0-.25-.05-.48v-.02c-.03-.14-.08-.27-.13-.4-.06-.14-.13-.26-.2-.38q-.135-.195-.3-.36a2 2 0 0 0-.36-.29c-.12-.08-.24-.15-.37-.2-.13-.06-.27-.1-.41-.13-.16-.04-.32-.06-.49-.06h-1.73a.66.66 0 0 0-.46.19.62.62 0 0 0-.19.46m1.3 2.68h1.08c.08 0 .16-.01.23-.03q.08-.02.16-.05c.06-.02.11-.05.16-.08a.7.7 0 0 0 .16-.14c.05-.05.1-.1.14-.16.03-.05.06-.1.08-.16.02-.05.04-.1.05-.16.02-.07.03-.15.03-.23q0-.12-.03-.23v-.01a1 1 0 0 0-.05-.16c-.02-.05-.05-.1-.08-.15-.04-.06-.09-.12-.14-.17s-.1-.1-.16-.14c-.05-.03-.1-.05-.16-.08a.8.8 0 0 0-.16-.05.9.9 0 0 0-.23-.03h-1.08zm4.96 11.41c2.48 0 4.49-2.01 4.49-4.5 0-2.48-2.01-4.5-4.49-4.5a4.5 4.5 0 0 0 0 9m-2.48-3.85c-.36 0-.65-.29-.65-.65s.29-.65.65-.65h3.33l-1.2-1.12a.65.65 0 0 1-.03-.92c.24-.26.65-.28.92-.03l2.4 2.25c.13.12.2.29.2.47s-.07.35-.2.48l-2.4 2.25c-.27.24-.68.23-.92-.03a.65.65 0 0 1 .03-.92l1.2-1.13z"/></svg>
